X: 1
T: Cry Of The Joyce, The
M: 6/8
L: 1/8
R: jig
K: Gmaj
|: de/f/ | g3 e2 d/e/ | d3 d2 B/A/ | G/A/G/E/D/E/ G/A/G/E/D/E/ |
G/A/G/E/D/E/ GA2 |G3 G3 | D3 E/G/  A2 | A3  D3 | (3E/G/A/  B2 B2G|
A/G/A/G/B/G/ (3A/G/E/ D2 |D3 B2A | G3 G  :|
|: GB/d/ | e3 e2f |g2e d3 | d2 e/f/  g/a/g/e/d/e/ |
g/a/g/e/d/e/  g/a/g/e/d/e/|ga2 g3 | g3 deg  |
a3 a3 | de/g/a  b3 | b2g  a/g/a/g/b/g/ |  ag/e/d d3|
b2a g3 | g3  g2 e/d/ | c2 B/A/  G/A/G/E/D/E/ | G/A/G/E/D/E/  G/A/G/E/D/E/|
G3 G3 | D/E/F/G/A/B/  c3 | c3 DE/F/G/A/ | B3  B2G|
AGA GBG | A/G/ED D3 |D3 B2A | G3 G :|
